icons/actions/24/draw-triangle1.svg

<svg version="1.1" viewBox="0 0 24 24" xmlns="http://www.w3.org/2000/svg">
    <defs>
        <style type="text/css" id="current-color-scheme">.ColorScheme-Text {
        color:#232629;
      }</style>
    </defs>
    <path class="ColorScheme-Text" d="m19 4-1 0.5722656-13 7.4277344 13 7.427734 1 0.572266v-1.15625-13.84375-1zm-1 1.5839844v12.6875l-10.976562-6.271484 10.976562-6.4160156z" fill="currentColor"/>
    <path d="m12.512994 15.326139-5.9389888-3.380071 0.198993-0.114978c0.109446-0.06324 2.7819905-1.619007 5.9389878-3.4572649l5.739995-3.342286 0.0064 3.417236c0.0036 1.8794799 0.0036 4.9562799 0 6.8373349l-0.0064 3.420099z" class="ColorScheme-Text" fill="currentColor" fill-opacity=".50196078"/>
</svg>

<svg xmlns="http://www.w3.org/2000/svg" viewBox="0 0 24 24">
  <defs id="defs3051">
    <style type="text/css" id="current-color-scheme">
      .ColorScheme-Text {
        color:#232629;
      }
      </style>
  </defs>
 <path style="fill:currentColor;fill-opacity:1;stroke:none" 
     d="M 19 4 L 18 4.5722656 L 5 12 L 18 19.427734 L 19 20 L 19 18.84375 L 19 5 L 19 4 z M 18 5.5839844 L 18 18.271484 L 7.0234375 12 L 18 5.5839844 z "
     class="ColorScheme-Text"
     />
</svg>
